docs/static/img/icons/copy.svg

<svg width="20" height="20" viewBox="0 0 20 20" fill="none" xmlns="http://www.w3.org/2000/svg">
<path d="M13.3337 0.833984H3.33366C2.41699 0.833984 1.66699 1.58398 1.66699 2.50065V14.1673H3.33366V2.50065H13.3337V0.833984ZM15.8337 4.16732H6.66699C5.75033 4.16732 5.00033 4.91732 5.00033 5.83398V17.5006C5.00033 18.4173 5.75033 19.1673 6.66699 19.1673H15.8337C16.7503 19.1673 17.5003 18.4173 17.5003 17.5006V5.83398C17.5003 4.91732 16.7503 4.16732 15.8337 4.16732ZM15.8337 17.5006H6.66699V5.83398H15.8337V17.5006Z" fill="white"/>
</svg>

<svg xmlns="http://www.w3.org/2000/svg" width="20" height="20" fill="none" xmlns:v="https://vecta.io/nano"><path d="M13.334.834h-10a1.67 1.67 0 0 0-1.667 1.667v11.667h1.667V2.501h10V.834zm2.5 3.333H6.667A1.67 1.67 0 0 0 5 5.834v11.667a1.67 1.67 0 0 0 1.667 1.667h9.167a1.67 1.67 0 0 0 1.667-1.667V5.834a1.67 1.67 0 0 0-1.667-1.667zm0 13.333H6.667V5.834h9.167v11.667z" fill="#fff"/></svg>
